resources/haticons/SVG/rotate_left.svg

<!-- Generated by IcoMoon.io -->
<svg version="1.1" xmlns="http://www.w3.org/2000/svg" width="24" height="24" viewBox="0 0 24 24">
<title>rotate_left</title>
<path d="M12.984 4.078q2.953 0.375 4.992 2.625t2.039 5.297-2.039 5.297-4.992 2.625v-2.016q2.156-0.375 3.586-2.039t1.43-3.867-1.43-3.867-3.586-2.039v3.891l-4.547-4.453 4.547-4.547v3.094zM7.078 18.328l1.453-1.453q1.078 0.797 2.484 1.031v2.016q-2.25-0.281-3.938-1.594zM6.094 12.984q0.234 1.359 0.984 2.484l-1.406 1.406q-1.313-1.734-1.594-3.891h2.016zM7.125 8.531q-0.844 1.219-1.031 2.484h-2.016q0.281-2.109 1.641-3.891z"></path>
</svg>

<svg xmlns="http://www.w3.org/2000/svg" width="24" height="24"><path d="M12.984 4.078q2.953.375 4.992 2.625T20.015 12t-2.039 5.297-4.992 2.625v-2.016q2.156-.375 3.586-2.039T18 12t-1.43-3.867-3.586-2.039v3.891L8.437 5.532 12.984.985v3.094zm-5.906 14.25l1.453-1.453q1.078.797 2.484 1.031v2.016q-2.25-.281-3.938-1.594zm-.984-5.344q.234 1.359.984 2.484l-1.406 1.406q-1.313-1.734-1.594-3.891h2.016zm1.031-4.453q-.844 1.219-1.031 2.484H4.078q.281-2.109 1.641-3.891z"/></svg>
